_site/images/icons/safety.svg

<svg height="60" viewBox="0 0 60 60" width="60" xmlns="http://www.w3.org/2000/svg"><g fill="#13837f"><path d="m56 .00002144c-2.209139 0-4 1.790861-4 4v.18c-.9170069-.33407746-1.9394844-.19795405-2.7371486.3643992-.7976641.56235324-1.2694095 1.479657-1.2628514 2.4556008v1.18c-.9170069-.33407746-1.9394844-.19795405-2.7371486.3643992-.7976641.56235324-1.2694095 1.47965696-1.2628514 2.45560076v19.54l-2.33 4.03c-.4384923.7602468-.6695389 1.6223609-.67 2.5v13.11c-1.1938517.4252305-1.9934724 1.5526957-2 2.82v4c.0049422 1.6548028 1.3451972 2.9950578 3 3h12c1.6548028-.0049422 2.9950578-1.3451972 3-3v-4c-.0065276-1.2673043-.8061483-2.3947695-2-2.82v-3.87c.0024701-.71458.2574971-1.4052782.72-1.95l3.08-3.59c.7732216-.9064751 1.198601-2.0585442 1.2-3.25v-33.51999996c0-2.209139-1.790861-4-4-4zm-6 7c0-.55228475.4477153-1 1-1s1 .44771525 1 1v15.35999996c-.6384304-.153337-1.3048666-.1464665-1.94.02-.02 0-.04.02-.06.02zm-4 3.99999996c0-.5522847.4477153-1 1-1s1 .4477153 1 1v12.73c-.1345012.161611-.2581072.3319869-.37.51l-1.63 2.83zm9 46c0 .5522848-.4477153 1-1 1h-12c-.5522847 0-1-.4477152-1-1v-4c0-.5522847.4477153-1 1-1h12c.5522847 0 1 .4477153 1 1zm3-19.48c-.0007345.7148923-.2559751 1.4061688-.72 1.95l-3.08 3.59c-.7716967.9073678-1.1968618 2.0588568-1.2 3.25v3.69h-10v-12.93c.0022665-.5260592.1400273-1.0426623.4-1.5l5.97-10.33c.5529293-.9546113 1.7744087-1.281234 2.73-.73.9517865.5550893 1.2777082 1.773947.73 2.73l-6.5 11.26 1.73 1 6.5-11.26c.8723869-1.5251311.6450397-3.4413432-.56-4.72v-19.51999996c0-1.1045695.8954305-2 2-2s2 .8954305 2 2z"/><path d="m43 54.000021h10v2h-10z"/><path d="m19 50.1800214v-13.11c-.0004611-.8776391-.2315077-1.7397532-.67-2.5l-2.33-4.03v-19.54c.0065581-.9759438-.4651873-1.89324752-1.2628514-2.45560076-.7976642-.56235325-1.8201417-.69847666-2.7371486-.3643992v-1.18c.0065581-.9759438-.4651873-1.89324756-1.2628514-2.4556008-.79766421-.56235325-1.82014175-.69847666-2.7371486-.3643992v-.18c0-2.209139-1.790861-4-4-4s-4 1.790861-4 4v33.51999996c.00139902 1.1914558.42677839 2.3435249 1.2 3.25l3.08 3.59c.46250292.5447218.71752992 1.23542.72 1.95v3.87c-1.19385168.4252305-1.99347241 1.5526957-2 2.82v4c.0049422 1.6548028 1.3451972 2.9950578 3 3h12c1.6548028-.0049422 2.9950578-1.3451972 3-3v-4c-.0065276-1.2673043-.8061483-2.3947695-2-2.82zm-7-39.18c0-.5522847.4477153-1 1-1s1 .4477153 1 1v16.07l-1.63-2.83c-.1118928-.1780131-.2354988-.348389-.37-.51zm-4-3.99999996c0-.55228475.44771525-1 1-1s1 .44771525 1 1v15.39999996c-.02 0-.04-.02-.06-.02-.63445451-.1714567-1.30214552-.1783401-1.94-.02zm-5.28 32.46999996c-.46402489-.5438312-.71926545-1.2351077-.72-1.95v-33.51999996c0-1.1045695.8954305-2 2-2s2 .8954305 2 2v19.51999996c-1.20503966 1.2786568-1.43238686 3.1948689-.56 4.72l6.5 11.26 1.73-1-6.5-11.26c-.54770817-.956053-.22178651-2.1749107.73-2.73.95559126-.551234 2.1770707-.2246113 2.73.73l5.97 10.33c.2599727.4573377.3977335.9739408.4 1.5v12.93h-10v-3.69c-.00313819-1.1911432-.42830335-2.3426322-1.2-3.25zm16.28 17.53c0 .5522848-.4477153 1-1 1h-12c-.55228475 0-1-.4477152-1-1v-4c0-.5522847.44771525-1 1-1h12c.5522847 0 1 .4477153 1 1z"/><path d="m7 54.000021h10v2h-10z"/><path d="m41.34 4.06002144-11-4c-.2196028-.08002859-.4603972-.08002859-.68 0l-11 4c-.3974668.14115717-.6622114.51821765-.66.94v8.68999996c.0024105 3.6613075 1.5448743 7.1527196 4.25 9.62l7.08 6.43c.3793536.346794.9606464.346794 1.34 0l7.08-6.43c2.7051257-2.4672804 4.2475895-5.9586925 4.25-9.62v-8.68999996c.0022114-.42178235-.2625332-.79884283-.66-.94zm-1.34 9.62999996c-.0021484 3.0988061-1.3088963 6.0535084-3.6 8.14l-6.4 5.82-6.4-5.82c-2.2911037-2.0864916-3.5978516-5.0411939-3.6-8.14v-7.98999996l10-3.64 10 3.64z"/><path d="m25.707 13.2930214-1.414 1.414 4 4c.3904999.390382 1.0235001.390382 1.414 0l7-7-1.414-1.414-6.293 6.293z"/></g></svg>

<?xml version="1.0" encoding="UTF-8"?>
<svg width="60px" height="60px" viewBox="0 0 60 60" version="1.1" xmlns="http://www.w3.org/2000/svg" xmlns:xlink="http://www.w3.org/1999/xlink">
    <!-- Generator: Sketch 52.6 (67491) - http://www.bohemiancoding.com/sketch -->
    <title>safety</title>
    <desc>Created with Sketch.</desc>
    <g id="Website" stroke="none" stroke-width="1" fill="none" fill-rule="evenodd">
        <g id="20--Verification" transform="translate(-1100.000000, -715.000000)" fill="#13837F" fill-rule="nonzero">
            <g id="Group-36" transform="translate(958.000000, 715.000000)">
                <g id="safety" transform="translate(142.000000, 0.000000)">
                    <path d="M56,2.14364736e-05 C53.790861,2.14364736e-05 52,1.79088244 52,4.00002144 L52,4.18002144 C51.0829931,3.84594398 50.0605156,3.98206739 49.2628514,4.54442064 C48.4651873,5.10677388 47.9934419,6.02407764 48,7.00002144 L48,8.18002144 C47.0829931,7.84594398 46.0605156,7.98206739 45.2628514,8.54442064 C44.4651873,9.10677388 43.9934419,10.0240776 44,11.0000214 L44,30.5400214 L41.67,34.5700214 C41.2315077,35.3302682 41.0004611,36.1923823 41,37.0700214 L41,50.1800214 C39.8061483,50.6052519 39.0065276,51.7327171 39,53.0000214 L39,57.0000214 C39.0049422,58.6548242 40.3451972,59.9950792 42,60.0000214 L54,60.0000214 C55.6548028,59.9950792 56.9950578,58.6548242 57,57.0000214 L57,53.0000214 C56.9934724,51.7327171 56.1938517,50.6052519 55,50.1800214 L55,46.3100214 C55.0024701,45.5954414 55.2574971,44.9047432 55.72,44.3600214 L58.8,40.7700214 C59.5732216,39.8635463 59.998601,38.7114772 60,37.5200214 L60,4.00002144 C60,1.79088244 58.209139,2.14364736e-05 56,2.14364736e-05 Z M50,7.00002144 C50,6.44773669 50.4477153,6.00002144 51,6.00002144 C51.5522847,6.00002144 52,6.44773669 52,7.00002144 L52,22.3600214 C51.3615696,22.2066844 50.6951334,22.2135549 50.06,22.3800214 C50.04,22.3800214 50.02,22.4000214 50,22.4000214 L50,7.00002144 Z M46,11.0000214 C46,10.4477367 46.4477153,10.0000214 47,10.0000214 C47.5522847,10.0000214 48,10.4477367 48,11.0000214 L48,23.7300214 C47.8654988,23.8916324 47.7418928,24.0620083 47.63,24.2400214 L46,27.0700214 L46,11.0000214 Z M55,57.0000214 C55,57.5523062 54.5522847,58.0000214 54,58.0000214 L42,58.0000214 C41.4477153,58.0000214 41,57.5523062 41,57.0000214 L41,53.0000214 C41,52.4477367 41.4477153,52.0000214 42,52.0000214 L54,52.0000214 C54.5522847,52.0000214 55,52.4477367 55,53.0000214 L55,57.0000214 Z M58,37.5200214 C57.9992655,38.2349137 57.7440249,38.9261902 57.28,39.4700214 L54.2,43.0600214 C53.4283033,43.9673892 53.0031382,45.1188782 53,46.3100214 L53,50.0000214 L43,50.0000214 L43,37.0700214 C43.0022665,36.5439622 43.1400273,36.0273591 43.4,35.5700214 L49.37,25.2400214 C49.9229293,24.2854101 51.1444087,23.9587874 52.1,24.5100214 C53.0517865,25.0651107 53.3777082,26.2839684 52.83,27.2400214 L46.33,38.5000214 L48.06,39.5000214 L54.56,28.2400214 C55.4323869,26.7148903 55.2050397,24.7986782 54,23.5200214 L54,4.00002144 C54,2.89545194 54.8954305,2.00002144 56,2.00002144 C57.1045695,2.00002144 58,2.89545194 58,4.00002144 L58,37.5200214 Z" id="Shape"></path>
                    <rect id="Rectangle" x="43" y="54.0000214" width="10" height="2"></rect>
                    <path d="M19,50.1800214 L19,37.0700214 C18.9995389,36.1923823 18.7684923,35.3302682 18.33,34.5700214 L16,30.5400214 L16,11.0000214 C16.0065581,10.0240776 15.5348127,9.10677388 14.7371486,8.54442064 C13.9394844,7.98206739 12.9170069,7.84594398 12,8.18002144 L12,7.00002144 C12.0065581,6.02407764 11.5348127,5.10677388 10.7371486,4.54442064 C9.93948439,3.98206739 8.91700685,3.84594398 8,4.18002144 L8,4.00002144 C8,1.79088244 6.209139,2.14364736e-05 4,2.14364736e-05 C1.790861,2.14364736e-05 4.4408921e-16,1.79088244 0,4.00002144 L0,37.5200214 C0.00139902477,38.7114772 0.42677839,39.8635463 1.2,40.7700214 L4.28,44.3600214 C4.74250292,44.9047432 4.99752992,45.5954414 5,46.3100214 L5,50.1800214 C3.80614832,50.6052519 3.00652759,51.7327171 3,53.0000214 L3,57.0000214 C3.0049422,58.6548242 4.3451972,59.9950792 6,60.0000214 L18,60.0000214 C19.6548028,59.9950792 20.9950578,58.6548242 21,57.0000214 L21,53.0000214 C20.9934724,51.7327171 20.1938517,50.6052519 19,50.1800214 Z M12,11.0000214 C12,10.4477367 12.4477153,10.0000214 13,10.0000214 C13.5522847,10.0000214 14,10.4477367 14,11.0000214 L14,27.0700214 L12.37,24.2400214 C12.2581072,24.0620083 12.1345012,23.8916324 12,23.7300214 L12,11.0000214 Z M8,7.00002144 C8,6.44773669 8.44771525,6.00002144 9,6.00002144 C9.55228475,6.00002144 10,6.44773669 10,7.00002144 L10,22.4000214 C9.98,22.4000214 9.96,22.3800214 9.94,22.3800214 C9.30554549,22.2085647 8.63785448,22.2016813 8,22.3600214 L8,7.00002144 Z M2.72,39.4700214 C2.25597511,38.9261902 2.00073455,38.2349137 2,37.5200214 L2,4.00002144 C2,2.89545194 2.8954305,2.00002144 4,2.00002144 C5.1045695,2.00002144 6,2.89545194 6,4.00002144 L6,23.5200214 C4.79496034,24.7986782 4.56761314,26.7148903 5.44,28.2400214 L11.94,39.5000214 L13.67,38.5000214 L7.17,27.2400214 C6.62229183,26.2839684 6.94821349,25.0651107 7.9,24.5100214 C8.85559126,23.9587874 10.0770707,24.2854101 10.63,25.2400214 L16.6,35.5700214 C16.8599727,36.0273591 16.9977335,36.5439622 17,37.0700214 L17,50.0000214 L7,50.0000214 L7,46.3100214 C6.99686181,45.1188782 6.57169665,43.9673892 5.8,43.0600214 L2.72,39.4700214 Z M19,57.0000214 C19,57.5523062 18.5522847,58.0000214 18,58.0000214 L6,58.0000214 C5.44771525,58.0000214 5,57.5523062 5,57.0000214 L5,53.0000214 C5,52.4477367 5.44771525,52.0000214 6,52.0000214 L18,52.0000214 C18.5522847,52.0000214 19,52.4477367 19,53.0000214 L19,57.0000214 Z" id="Shape"></path>
                    <rect id="Rectangle" x="7" y="54.0000214" width="10" height="2"></rect>
                    <path d="M41.34,4.06002144 L30.34,0.0600214365 C30.1203972,-0.0200071455 29.8796028,-0.0200071455 29.66,0.0600214365 L18.66,4.06002144 C18.2625332,4.20117861 17.9977886,4.57823909 18,5.00002144 L18,13.6900214 C18.0024105,17.3513289 19.5448743,20.842741 22.25,23.3100214 L29.33,29.7400214 C29.7093536,30.0868154 30.2906464,30.0868154 30.67,29.7400214 L37.75,23.3100214 C40.4551257,20.842741 41.9975895,17.3513289 42,13.6900214 L42,5.00002144 C42.0022114,4.57823909 41.7374668,4.20117861 41.34,4.06002144 Z M40,13.6900214 C39.9978516,16.7888275 38.6911037,19.7435298 36.4,21.8300214 L30,27.6500214 L23.6,21.8300214 C21.3088963,19.7435298 20.0021484,16.7888275 20,13.6900214 L20,5.70002144 L30,2.06002144 L40,5.70002144 L40,13.6900214 Z" id="Shape"></path>
                    <path d="M25.707,13.2930214 L24.293,14.7070214 L28.293,18.7070214 C28.6834999,19.0974034 29.3165001,19.0974034 29.707,18.7070214 L36.707,11.7070214 L35.293,10.2930214 L29,16.5860214 L25.707,13.2930214 Z" id="Path"></path>
                </g>
            </g>
        </g>
    </g>
</svg>
